polaris-icons/icons/new-icons/ReplaceMajor.svg

<svg width="20" height="20" viewBox="0 0 20 20" fill="none" xmlns="http://www.w3.org/2000/svg">
<path fill-rule="evenodd" clip-rule="evenodd" d="M13.3238 3.5C13.3325 3.5 13.3412 3.5 13.35 3.5H14.15C14.1588 3.5 14.1675 3.5 14.1762 3.5C14.4337 3.49998 14.6702 3.49996 14.8679 3.51612C15.081 3.53353 15.3142 3.57339 15.5445 3.69074C15.8738 3.85852 16.1415 4.12623 16.3093 4.45552C16.4266 4.68582 16.4665 4.919 16.4839 5.13213C16.5 5.32982 16.5 5.5663 16.5 5.82379V6.67621C16.5 6.9337 16.5 7.17018 16.4839 7.36787C16.4665 7.581 16.4266 7.81418 16.3093 8.04448C16.1415 8.37377 15.8738 8.64148 15.5445 8.80926C15.3142 8.92661 15.081 8.96647 14.8679 8.98388C14.6702 9.00004 14.4337 9.00002 14.1762 9H13.3238C13.0663 9.00002 12.8298 9.00004 12.6321 8.98388C12.419 8.96647 12.1858 8.92661 11.9555 8.80926C11.6262 8.64148 11.3585 8.37377 11.1907 8.04448C11.0734 7.81418 11.0335 7.581 11.0161 7.36787C11 7.17019 11 6.9337 11 6.67622C11 6.6675 11 6.65876 11 6.65V5.85C11 5.84124 11 5.8325 11 5.82378C11 5.5663 11 5.32981 11.0161 5.13213C11.0335 4.919 11.0734 4.68582 11.1907 4.45552C11.3585 4.12623 11.6262 3.85852 11.9555 3.69074C12.1858 3.57339 12.419 3.53353 12.6321 3.51612C12.8298 3.49996 13.0663 3.49998 13.3238 3.5ZM12.6309 5.02973L12.6324 5.02917ZM12.6335 5.02882C12.6423 5.02607 12.6755 5.01757 12.7543 5.01113C12.8834 5.00058 13.0576 5 13.35 5H14.15C14.4424 5 14.6166 5.00058 14.7457 5.01113C14.8245 5.01757 14.8577 5.02607 14.8665 5.02882C14.9112 5.05234 14.9477 5.08882 14.9712 5.13346C14.9739 5.14234 14.9824 5.17547 14.9889 5.25428C14.9994 5.3834 15 5.5576 15 5.85V6.65C15 6.9424 14.9994 7.1166 14.9889 7.24572C14.9824 7.32453 14.9739 7.35766 14.9712 7.36654C14.9477 7.41118 14.9112 7.44766 14.8665 7.47118C14.8577 7.47393 14.8245 7.48243 14.7457 7.48887C14.6166 7.49942 14.4424 7.5 14.15 7.5H13.35C13.0576 7.5 12.8834 7.49942 12.7543 7.48887C12.6755 7.48243 12.6423 7.47393 12.6335 7.47118C12.5888 7.44766 12.5523 7.41118 12.5288 7.36654C12.5261 7.35766 12.5176 7.32453 12.5111 7.24572C12.5006 7.1166 12.5 6.9424 12.5 6.65V5.85C12.5 5.5576 12.5006 5.3834 12.5111 5.25428C12.5176 5.17547 12.5261 5.14234 12.5288 5.13346C12.5523 5.08882 12.5888 5.05234 12.6335 5.02882ZM12.5297 5.13087L12.5292 5.13239ZM12.5297 7.36913L12.5292 7.36761ZM12.6309 7.47027L12.6324 7.47083ZM14.8691 7.47027L14.8676 7.47083ZM14.9703 7.36913L14.9708 7.36761ZM14.9703 5.13087L14.9708 5.13239ZM14.8676 5.02917L14.8691 5.02973Z" fill="#4A4A4A"/>
<path fill-rule="evenodd" clip-rule="evenodd" d="M6.67622 16.5C6.6675 16.5 6.65876 16.5 6.65 16.5H5.85C5.84124 16.5 5.8325 16.5 5.82378 16.5C5.5663 16.5 5.32981 16.5 5.13213 16.4839C4.919 16.4665 4.68582 16.4266 4.45552 16.3093C4.12623 16.1415 3.85852 15.8738 3.69074 15.5445C3.57339 15.3142 3.53353 15.081 3.51612 14.8679C3.49996 14.6702 3.49998 14.4337 3.5 14.1762V13.3238C3.49998 13.0663 3.49996 12.8298 3.51612 12.6321C3.53353 12.419 3.57339 12.1858 3.69074 11.9555C3.85852 11.6262 4.12623 11.3585 4.45552 11.1907C4.68582 11.0734 4.919 11.0335 5.13213 11.0161C5.32982 11 5.5663 11 5.82379 11H6.67621C6.9337 11 7.17018 11 7.36787 11.0161C7.58101 11.0335 7.81418 11.0734 8.04448 11.1907C8.37377 11.3585 8.64148 11.6262 8.80926 11.9555C8.92661 12.1858 8.96647 12.419 8.98389 12.6321C9.00004 12.8298 9.00002 13.0663 9 13.3238C9 13.3325 9 13.3412 9 13.35V14.15C9 14.1588 9 14.1675 9 14.1762C9.00002 14.4337 9.00004 14.6702 8.98389 14.8679C8.96647 15.081 8.92661 15.3142 8.80926 15.5445C8.64148 15.8738 8.37377 16.1415 8.04448 16.3093C7.81418 16.4266 7.58101 16.4665 7.36787 16.4839C7.17019 16.5 6.9337 16.5 6.67622 16.5ZM7.36913 14.9703L7.36761 14.9708ZM7.36654 14.9712C7.35766 14.9739 7.32453 14.9824 7.24572 14.9889C7.1166 14.9994 6.9424 15 6.65 15H5.85C5.5576 15 5.3834 14.9994 5.25428 14.9889C5.17547 14.9824 5.14234 14.9739 5.13346 14.9712C5.08882 14.9477 5.05234 14.9112 5.02882 14.8665C5.02607 14.8577 5.01757 14.8245 5.01113 14.7457C5.00058 14.6166 5 14.4424 5 14.15V13.35C5 13.0576 5.00058 12.8834 5.01113 12.7543C5.01757 12.6755 5.02607 12.6423 5.02882 12.6335C5.05234 12.5888 5.08882 12.5523 5.13346 12.5288C5.14234 12.5261 5.17547 12.5176 5.25428 12.5111C5.3834 12.5006 5.5576 12.5 5.85 12.5H6.65C6.9424 12.5 7.1166 12.5006 7.24572 12.5111C7.32453 12.5176 7.35766 12.5261 7.36654 12.5288C7.41118 12.5523 7.44766 12.5888 7.47118 12.6335C7.47393 12.6423 7.48243 12.6755 7.48887 12.7543C7.49942 12.8834 7.5 13.0576 7.5 13.35V14.15C7.5 14.4424 7.49942 14.6166 7.48887 14.7457C7.48243 14.8245 7.47393 14.8577 7.47118 14.8665C7.44766 14.9112 7.41118 14.9477 7.36654 14.9712ZM7.47027 14.8691L7.47083 14.8676ZM7.47027 12.6309L7.47083 12.6324ZM7.36913 12.5297L7.36761 12.5292ZM5.13087 12.5297L5.13239 12.5292ZM5.02973 12.6309L5.02917 12.6324ZM5.02973 14.8691L5.02917 14.8676ZM5.13239 14.9708L5.13087 14.9703Z" fill="#4A4A4A"/>
<path d="M6.96966 4.53032C6.67677 4.23742 6.67678 3.76255 6.96968 3.46966C7.26258 3.17677 7.73745 3.17678 8.03034 3.46968L10.0246 5.46404C10.0464 5.48539 10.0669 5.50805 10.086 5.53191C10.1886 5.66021 10.25 5.82294 10.25 6L10.25 6.00696C10.2492 6.09333 10.2336 6.1796 10.2031 6.2616C10.1667 6.35964 10.1091 6.4516 10.0303 6.53039L8.03033 8.53039C7.73744 8.82328 7.26256 8.82328 6.96967 8.53039C6.67678 8.2375 6.67678 7.76262 6.96967 7.46973L7.6894 6.75H7.45C6.87757 6.75 6.49336 6.75058 6.19748 6.77476C5.91035 6.79822 5.77307 6.8401 5.68251 6.88624C5.44731 7.00608 5.25608 7.19731 5.13624 7.43251C5.0901 7.52307 5.04822 7.66036 5.02476 7.94748C5.00058 8.24336 5 8.62757 5 9.2V9.5C5 9.91421 4.66421 10.25 4.25 10.25C3.83579 10.25 3.5 9.91421 3.5 9.5V9.16957C3.49999 8.63542 3.49998 8.18956 3.52974 7.82533C3.56078 7.44545 3.62789 7.08879 3.79973 6.75153C4.06338 6.23408 4.48408 5.81338 5.00153 5.54973C5.33879 5.37789 5.69544 5.31078 6.07533 5.27974C6.43956 5.24998 6.88541 5.24999 7.41956 5.25H7.68932L6.96966 4.53032Z" fill="#4A4A4A"/>
<path d="M13.8025 13.2252C13.5066 13.2494 13.1224 13.25 12.55 13.25H12.3106L13.0303 12.5303C13.3232 12.2374 13.3232 11.7625 13.0303 11.4696C12.7374 11.1767 12.2626 11.1767 11.9697 11.4696L9.96967 13.4696C9.89088 13.5484 9.83329 13.6404 9.79689 13.7384C9.76657 13.8198 9.75 13.908 9.75 14C9.75 14.1771 9.81136 14.3398 9.91397 14.4681C9.93305 14.4919 9.95355 14.5146 9.97536 14.536L11.9697 16.5303C12.2626 16.8232 12.7374 16.8232 13.0303 16.5303C13.3232 16.2374 13.3232 15.7626 13.0303 15.4697L12.3107 14.75H12.5804C13.1146 14.75 13.5604 14.75 13.9247 14.7203C14.3046 14.6892 14.6612 14.6221 14.9985 14.4503C15.5159 14.1866 15.9366 13.7659 16.2003 13.2485C16.3721 12.9112 16.4392 12.5546 16.4703 12.1747C16.5 11.8104 16.5 11.3646 16.5 10.8304V10.5C16.5 10.0858 16.1642 9.75 15.75 9.75C15.3358 9.75 15 10.0858 15 10.5V10.8C15 11.3724 14.9994 11.7566 14.9752 12.0525C14.9518 12.3396 14.9099 12.4769 14.8638 12.5675C14.7439 12.8027 14.5527 12.9939 14.3175 13.1138C14.2269 13.1599 14.0896 13.2018 13.8025 13.2252Z" fill="#4A4A4A"/>
</svg>

<svg viewBox="0 0 20 20" xmlns="http://www.w3.org/2000/svg"><path fill-rule="evenodd" d="M13.324 3.5h.852c.258 0 .494 0 .692.016.213.018.446.057.676.175.33.168.598.435.765.765.118.23.157.463.175.676.016.198.016.434.016.692v.852c0 .258 0 .494-.016.692a1.775 1.775 0 0 1-.175.676 1.75 1.75 0 0 1-.765.765c-.23.118-.463.157-.676.175-.198.016-.434.016-.692.016h-.852c-.258 0-.494 0-.692-.016a1.774 1.774 0 0 1-.676-.175 1.75 1.75 0 0 1-.765-.765 1.775 1.775 0 0 1-.175-.676c-.016-.198-.016-.434-.016-.692v-.852c0-.258 0-.494.016-.692.018-.213.057-.446.175-.676a1.75 1.75 0 0 1 .764-.765c.23-.118.464-.157.677-.175.198-.016.434-.016.692-.016Zm-.693 1.53h.001Zm.002-.001a.626.626 0 0 1 .121-.018c.13-.01.304-.011.596-.011h.8c.292 0 .467 0 .596.011a.626.626 0 0 1 .12.018.25.25 0 0 1 .105.104.638.638 0 0 1 .018.121c.01.13.011.304.011.596v.8c0 .292 0 .467-.011.596a.638.638 0 0 1-.018.12.25.25 0 0 1-.104.105.626.626 0 0 1-.121.018c-.13.01-.304.011-.596.011h-.8c-.292 0-.467 0-.596-.011a.626.626 0 0 1-.12-.018.25.25 0 0 1-.105-.104.638.638 0 0 1-.018-.121 8.374 8.374 0 0 1-.011-.596v-.8c0-.292 0-.467.011-.596a.638.638 0 0 1 .018-.12.25.25 0 0 1 .104-.105Zm-.103.102v.001Zm0 2.238v-.001Zm.1.101h.002Zm2.24 0h-.002Zm.1-.1v-.002Zm0-2.24v.002Zm-.102-.1h.001Z" fill="#5C5F62"/><path fill-rule="evenodd" d="M6.676 16.5h-.852c-.258 0-.494 0-.692-.016a1.775 1.775 0 0 1-.676-.175 1.75 1.75 0 0 1-.765-.765 1.774 1.774 0 0 1-.175-.676c-.016-.198-.016-.434-.016-.692v-.852c0-.258 0-.494.016-.692.018-.213.057-.446.175-.676a1.75 1.75 0 0 1 .765-.765c.23-.118.463-.158.676-.175.198-.016.434-.016.692-.016h.852c.258 0 .494 0 .692.016.213.018.446.057.676.175.33.167.597.435.765.764.118.23.157.464.175.677.016.198.016.434.016.692v.852c0 .258 0 .494-.016.692a1.774 1.774 0 0 1-.175.676 1.75 1.75 0 0 1-.765.765c-.23.118-.463.157-.676.175-.198.016-.434.016-.692.016Zm.693-1.53h-.001Zm-.002.001a.638.638 0 0 1-.121.018c-.13.01-.304.011-.596.011h-.8c-.292 0-.467 0-.596-.011a.638.638 0 0 1-.12-.018.25.25 0 0 1-.105-.104.626.626 0 0 1-.018-.121 8.337 8.337 0 0 1-.011-.596v-.8c0-.292 0-.467.011-.596a.626.626 0 0 1 .018-.12.25.25 0 0 1 .104-.105.638.638 0 0 1 .121-.018c.13-.01.304-.011.596-.011h.8c.292 0 .467 0 .596.011a.638.638 0 0 1 .12.018.25.25 0 0 1 .105.104.626.626 0 0 1 .018.121c.01.13.011.304.011.596v.8c0 .292 0 .467-.011.596a.626.626 0 0 1-.018.12.25.25 0 0 1-.104.105Zm.103-.102v-.001Zm0-2.238v.001Zm-.1-.101h-.002Zm-2.24 0h.002Zm-.1.1v.002Zm0 2.24v-.002Zm.102.1h-.001Z" fill="#5C5F62"/><path d="M6.97 4.53a.75.75 0 1 1 1.06-1.06l1.995 1.994a.758.758 0 0 1 .225.536v.007a.75.75 0 0 1-.22.523l-2 2a.75.75 0 0 1-1.06-1.06l.72-.72h-.24c-.572 0-.957 0-1.253.025-.287.023-.424.065-.514.111a1.25 1.25 0 0 0-.547.547c-.046.09-.088.227-.111.514-.024.296-.025.68-.025 1.253v.3a.75.75 0 0 1-1.5 0v-.33c0-.535 0-.98.03-1.345.03-.38.098-.736.27-1.073a2.75 2.75 0 0 1 1.202-1.202c.337-.172.693-.24 1.073-.27.365-.03.81-.03 1.345-.03h.27l-.72-.72Z" fill="#5C5F62"/><path d="M13.803 13.225c-.296.024-.68.025-1.253.025h-.24l.72-.72a.75.75 0 0 0-1.06-1.06l-2 2a.748.748 0 0 0 .005 1.066l1.995 1.994a.75.75 0 1 0 1.06-1.06l-.72-.72h.27c.535 0 .98 0 1.345-.03.38-.03.736-.098 1.073-.27a2.751 2.751 0 0 0 1.202-1.201c.172-.338.24-.694.27-1.074.03-.365.03-.81.03-1.345v-.33a.75.75 0 0 0-1.5 0v.3c0 .572 0 .957-.025 1.252-.023.288-.065.425-.111.516a1.25 1.25 0 0 1-.546.546c-.091.046-.228.088-.515.111Z" fill="#5C5F62"/></svg>
